app/assets/images/visual-editor/icons/align-center.svg

<?xml version="1.0" encoding="utf-8"?>
<svg xmlns="http://www.w3.org/2000/svg" width="24" height="24" viewBox="0 0 24 24">
    <g id="align-center" opacity=".75">
        <path d="M9 9h6c.554 0 1 .446 1 1v5c0 .554-.446 1-1 1h-6c-.554 0-1-.446-1-1v-5c0-.554.446-1 1-1zM3.5 18h17c.277 0 .5.223.5.5s-.223.5-.5.5h-17c-.277 0-.5-.223-.5-.5s.223-.5.5-.5zM3.5 6h17c.277 0 .5.223.5.5s-.223.5-.5.5h-17c-.277 0-.5-.223-.5-.5s.223-.5.5-.5z"/>
    </g>
</svg>

<?xml version="1.0" encoding="UTF-8"?>
<!DOCTYPE svg PUBLIC "-//W3C//DTD SVG 1.1//EN" "http://www.w3.org/Graphics/SVG/1.1/DTD/svg11.dtd">
<svg version="1.1" xmlns="http://www.w3.org/2000/svg" xmlns:xlink="http://www.w3.org/1999/xlink" x="0px" y="0px" width="24" height="24" viewBox="0, 0, 24, 24">
  <g id="Background">
    <rect x="0" y="0" width="24" height="24" fill="#000000" fill-opacity="0"/>
  </g>
  <g id="align-center" opacity="0.75">
    <path d="M9,9 L15,9 C15.554,9 16,9.446 16,10 L16,15 C16,15.554 15.554,16 15,16 L9,16 C8.446,16 8,15.554 8,15 L8,10 C8,9.446 8.446,9 9,9 z" fill="#000000"/>
    <path d="M3.5,18 L20.5,18 C20.777,18 21,18.223 21,18.5 C21,18.777 20.777,19 20.5,19 L3.5,19 C3.223,19 3,18.777 3,18.5 C3,18.223 3.223,18 3.5,18 z" fill="#000000"/>
    <path d="M3.5,6 L20.5,6 C20.777,6 21,6.223 21,6.5 C21,6.777 20.777,7 20.5,7 L3.5,7 C3.223,7 3,6.777 3,6.5 C3,6.223 3.223,6 3.5,6 z" fill="#000000"/>
  </g>
  <defs/>
</svg>
